X: 111
T:Pasodoble (Cantiga)
M:2/4
L:1/8
Q:300
C:Trad
S:Rep. "Os Enxebres de Arbo"
R:Pasodoble
K:C
G2 "F."cG | AG FG | EC-C2-| C4 | F2"F."cF |GF EF | 
DE/D/ C2- | C4 :||: GF EF | GA/G/ F"F."c | FE DE |FG/F/ E"F."c |
ED CD | EF/E/ D"F."c| DC B,C |DE/D/C2 :| C4 |: G3E | CD EF | 
G2{C}G2 | B3A |GA BA | BAG2- | G4 :| |: GF EF | GA/G/ F"F."c | FE DE |FG
/F/ E"F."c |
ED CD | EF/E/ D"F."c| DC B,C |DE/D/C2 :|

